images/table-tennis_theme_dark.svg

<svg width="50" height="50" viewBox="0 0 50 50" fill="none" xmlns="http://www.w3.org/2000/svg">
<path d="M16.2915 3.7205C16.791 2.54836 18.1611 1.24463 19.3367 0.822995C20.5133 0.400517 21.5539 0.0311652 21.6502 0.00165074C21.7465 -0.0270205 22.9221 0.321255 24.2639 0.776621C25.6058 1.23199 27.11 2.56014 27.6066 3.72807C28.1826 5.08067 28.1826 6.62218 27.6066 7.97479C27.11 9.14271 25.6331 10.4616 24.3253 10.9051C22.8107 11.4195 21.0846 11.4195 19.57 10.9051C18.2622 10.4616 16.7853 9.14271 16.2887 7.97479C15.7117 6.62049 15.7136 5.07985 16.2915 3.7205Z" fill="white"/>
<path d="M27.2922 13.4965C29.0457 12.5411 30.7908 10.6024 31.5226 8.79443C32.6614 5.98128 33.0098 5.76118 35.5971 6.22329C37.1523 6.50073 39.9549 7.67457 41.8236 8.83154C43.6923 9.98766 46.1096 12.3522 47.1955 14.0851C48.2814 15.818 49.4646 18.6481 49.8234 20.3751C50.1936 22.1569 49.9651 25.4187 49.2937 27.9173C48.391 31.2769 47.0813 33.2341 43.7641 36.1788C41.3732 38.3013 37.869 40.4567 35.9776 40.9686L32.5395 41.8978L21.1053 31.6631C14.7438 25.9676 9.67214 20.736 9.67214 19.8683C9.67214 19.0107 10.5777 16.8696 11.6844 15.1114L13.6966 11.9137L16.6418 13.5176C18.2612 14.3997 20.6493 15.1215 21.9476 15.1215C23.246 15.1215 25.6511 14.3895 27.2922 13.4965Z" fill="white"/>
<path d="M8.57681 34.2131C9.12921 32.4195 9.33694 29.7632 9.03949 28.3102C8.54186 25.885 9.24438 26.3252 17.6125 33.6793L26.7266 41.6904L22.6851 41.913C20.4614 42.0353 17.6616 42.333 16.4624 42.5741C15.2631 42.8153 12.3718 44.5845 10.0376 46.5063L5.79311 50L2.89701 47.4129L0 44.8265L3.78653 41.1499C5.86959 39.1286 8.02536 36.0068 8.57681 34.2131Z" fill="white"/>
</svg>

<svg width="50" height="50" fill="none" xmlns="http://www.w3.org/2000/svg"><path d="M16.291 3.72c.5-1.172 1.87-2.475 3.046-2.897A193.5 193.5 0 0 1 21.65.002c.097-.029 1.272.32 2.614.775 1.342.455 2.846 1.783 3.343 2.951a5.434 5.434 0 0 1 0 4.247c-.497 1.168-1.974 2.487-3.282 2.93a7.52 7.52 0 0 1-4.755 0c-1.308-.443-2.785-1.762-3.281-2.93a5.44 5.44 0 0 1 .002-4.254Z" fill="#fff"/><path d="M27.292 13.496c1.754-.955 3.499-2.894 4.23-4.702 1.14-2.813 1.488-3.033 4.075-2.57 1.555.277 4.358 1.45 6.227 2.608 1.868 1.156 4.286 3.52 5.372 5.253 1.085 1.733 2.269 4.563 2.627 6.29.37 1.782.142 5.044-.53 7.542-.902 3.36-2.212 5.317-5.529 8.262-2.39 2.122-5.895 4.278-7.786 4.79l-3.439.929-11.434-10.235C14.744 25.968 9.672 20.736 9.672 19.868c0-.857.906-2.998 2.012-4.757l2.013-3.197 2.945 1.604c1.62.882 4.007 1.603 5.306 1.603 1.298 0 3.703-.732 5.344-1.625ZM8.577 34.213c.552-1.794.76-4.45.462-5.903-.497-2.425.205-1.985 8.574 5.37l9.114 8.01-4.042.223c-2.224.122-5.023.42-6.223.661-1.199.241-4.09 2.01-6.424 3.932L5.793 50l-2.896-2.587L0 44.827l3.787-3.677c2.083-2.021 4.238-5.143 4.79-6.937Z" fill="#fff"/></svg>
